public/img/field-18.svg

<svg width="80" height="75" viewBox="0 0 80 75" fill="none" xmlns="http://www.w3.org/2000/svg">
<path d="M64 66.1551L63.9645 66.125L64 66.0849L63.0984 65.3221L56.7921 59.5215C56.7921 59.5215 56.6807 59.6369 56.4983 59.8075L56.3311 59.9882C54.8926 61.3179 50.2832 65.1666 44.8735 65.2419C44.757 65.2419 44.6404 65.2419 44.5239 65.2419C41.6772 64.9358 38.9015 63.4204 36.0852 60.6154C31.4099 55.9388 26.2078 53.4148 20.6107 53.0786C20.4537 53.0786 20.2966 53.0786 20.1447 53.0786C19.3027 53.0046 18.4568 52.9828 17.612 53.0133C9.18338 53.3546 2.92268 58.9545 0.795251 61.1122C0.339375 61.5186 0.0658488 61.8096 0.00506529 61.8598L0.0354571 61.8899C0.0262093 61.9068 0.0142314 61.9221 0 61.9351L0.901623 62.6878L7.20792 68.4934L7.5017 68.2024L7.66886 68.0217C9.10233 66.687 13.7168 62.8383 19.1266 62.7681C19.2431 62.7681 19.3545 62.7681 19.471 62.7681C22.3228 63.0741 25.0935 64.5895 27.9098 67.3945C32.5901 72.0511 37.782 74.5751 43.3792 74.9213C43.5311 74.9213 43.6882 74.9213 43.8452 74.9213C44.6872 74.9955 45.5331 75.0172 46.3778 74.9865C54.8065 74.6453 61.0672 69.0504 63.1946 66.8927C63.6353 66.4712 63.9139 66.1852 63.9696 66.125" fill="#EFC825"/>
<g clip-path="url(#clip0)">
<path d="M79.0625 46.1139H77.2984C77.3411 46.0521 77.3835 45.9901 77.4234 45.9257C78.2229 44.6349 78.2964 43.0524 77.6199 41.6927L77.0768 40.6006C76.8463 40.1371 76.2837 39.948 75.8199 40.1786C75.3562 40.4091 75.1674 40.9719 75.3979 41.4355L75.941 42.5279C76.3264 43.3024 76.2846 44.2035 75.8293 44.9386C75.3734 45.6746 74.5837 46.114 73.717 46.114H68.1411V42.8256H71.0645C71.0656 42.8256 71.0667 42.8259 71.0677 42.8259C71.0695 42.8259 71.0711 42.8256 71.0729 42.8256H71.7152C72.233 42.8256 72.6527 42.4059 72.6527 41.8881C72.6527 41.3704 72.233 40.9506 71.7152 40.9506H71.6973L71.0721 39.4199C70.8764 38.9405 70.329 38.7107 69.8498 38.9064C69.3704 39.1021 69.1405 39.6494 69.3363 40.1287L69.6719 40.9506H55.5146L55.8503 40.1287C56.046 39.6495 55.8161 39.1022 55.3368 38.9064C54.8575 38.7107 54.3101 38.9405 54.1144 39.4199L53.4875 40.9547C53.0086 40.9969 52.633 41.3984 52.633 41.888C52.633 42.4057 53.0527 42.8255 53.5705 42.8255H54.1135C54.1152 42.8255 54.1169 42.8257 54.1186 42.8257C54.1198 42.8257 54.1209 42.8255 54.1219 42.8255H57.4806V46.1139H51.2066C50.3399 46.1139 49.5503 45.6745 49.0944 44.9385C48.639 44.2035 48.5972 43.3022 48.9826 42.5276L51.8741 36.7129C52.2076 36.0425 52.779 35.5327 53.4831 35.2775L58.3615 33.5085L61.7604 36.4775C61.937 36.6317 62.157 36.709 62.3771 36.709C62.597 36.709 62.817 36.6319 62.9936 36.4779L66.4446 33.466L71.4405 35.2776C72.1445 35.5329 72.716 36.0426 73.0494 36.7129L73.8119 38.2461C73.9757 38.5757 74.3074 38.7664 74.652 38.7664C74.7923 38.7664 74.9346 38.7349 75.0686 38.6681C75.5323 38.4376 75.7212 37.8749 75.4906 37.4112L74.7281 35.8779C74.1791 34.7742 73.2385 33.9351 72.0796 33.5149L69.7776 32.6801C71.4861 31.8486 72.653 30.1991 72.653 28.3034V18.8656C72.653 16.3694 71.5806 14.028 69.6334 12.2729C67.7135 10.542 65.1666 9.58875 62.4625 9.58875C56.8428 9.58875 52.2706 13.7502 52.2706 18.8655V28.3032C52.2706 30.1985 53.437 31.8476 55.1479 32.6794L52.8441 33.5147C51.6851 33.9349 50.7445 34.7741 50.1955 35.8779L47.304 41.6926C46.6274 43.0525 46.7009 44.635 47.5005 45.9259C47.5404 45.9902 47.5828 46.0522 47.6255 46.114H43.056V40.3195C43.056 37.769 41.4444 35.4711 39.0456 34.6016L36.7188 33.758C35.9778 33.4895 35.4799 32.7797 35.4799 31.9921V29.7317C37.6118 28.3401 38.8755 26.0154 38.8755 23.4571V13.7647H40.0984V22.0411C40.0984 22.5589 40.5181 22.9786 41.0359 22.9786C41.5536 22.9786 41.9734 22.5589 41.9734 22.0411V12.8272C41.9734 12.3095 41.5536 11.8897 41.0359 11.8897H21.7154C21.1976 11.8897 20.7779 12.3095 20.7779 12.8272C20.7779 13.345 21.1976 13.7647 21.7154 13.7647H23.8758V21.9066V21.9139V23.4571C23.8758 26.0154 25.1395 28.3401 27.2714 29.7317V31.9921C27.2714 32.7799 26.7735 33.4895 26.0325 33.7581L23.7056 34.6016C21.307 35.4711 19.6953 37.769 19.6953 40.3195V46.114H16.9375C16.4197 46.114 16 46.5337 16 47.0515V47.5409C16 49.6171 17.6418 51.3167 19.6953 51.4109V53.4739C19.6953 53.9916 20.115 54.4114 20.6328 54.4114C21.1505 54.4114 21.5703 53.9916 21.5703 53.4739V46.7324H24.3364V53.4739C24.3364 53.9916 24.7561 54.4114 25.2739 54.4114C25.7916 54.4114 26.2114 53.9916 26.2114 53.4739V44.1087C26.2114 43.2064 26.4475 42.3187 26.8942 41.5417C27.1523 41.0929 26.9976 40.5197 26.5487 40.2617C26.0999 40.0036 25.5269 40.1584 25.2688 40.6072C24.6588 41.6682 24.3364 42.879 24.3364 44.1089V44.8572H21.5703V40.3195C21.5703 38.5554 22.6851 36.9659 24.3446 36.3642L26.6715 35.5207C27.0775 35.3736 27.4452 35.1582 27.7676 34.8934C28.6129 35.185 29.486 35.3711 30.3721 35.4441C30.6684 35.4686 30.964 35.4809 31.259 35.4809C32.4966 35.4809 33.7206 35.2636 34.9142 34.8354C35.2526 35.1272 35.6444 35.3629 36.0798 35.5206L38.4066 36.3642C40.066 36.9657 41.181 38.5552 41.181 40.3194V44.8571H38.4149V44.1087C38.4149 40.229 35.2571 37.0725 31.3757 37.0725C30.2911 37.0725 29.2505 37.3127 28.2828 37.7866C27.8177 38.0142 27.6252 38.5759 27.853 39.0409C28.0806 39.506 28.6424 39.6982 29.1073 39.4706C29.8161 39.1235 30.5794 38.9475 31.3757 38.9475C34.2232 38.9475 36.5399 41.2627 36.5399 44.1087V53.4736C36.5399 53.9914 36.9596 54.4111 37.4774 54.4111C37.9951 54.4111 38.4149 53.9914 38.4149 53.4736V46.7321H41.181V47.0441C41.181 47.0466 41.1806 47.0489 41.1806 47.0514C41.1806 47.0539 41.181 47.0561 41.181 47.0586V50.4705C41.181 50.473 41.1806 50.4752 41.1806 50.4777C41.1806 50.4802 41.181 50.4825 41.181 50.485V53.4736C41.181 53.9914 41.6007 54.4111 42.1185 54.4111C42.6362 54.4111 43.056 53.9914 43.056 53.4736V51.4152H52.8377V53.4736C52.8377 53.9914 53.2575 54.4111 53.7752 54.4111C54.293 54.4111 54.7127 53.9914 54.7127 53.4736V51.4152H70.2115V53.4736C70.2115 53.9914 70.6312 54.4111 71.149 54.4111C71.6667 54.4111 72.0865 53.9914 72.0865 53.4736V51.4152H76.1254C78.2619 51.4152 80.0001 49.6771 80.0001 47.5406V47.0512C80 46.5336 79.5802 46.1139 79.0625 46.1139ZM62.3776 34.5267L59.4577 31.9762V30.6136C60.3485 31.0192 61.3365 31.2472 62.3775 31.2472C63.4193 31.2472 64.408 31.0189 65.2993 30.6126V31.977L62.3776 34.5267ZM54.1457 28.3032V18.8655C54.1457 14.7841 57.8766 11.4637 62.4626 11.4637C64.7022 11.4637 66.8031 12.2456 68.3783 13.6655C69.9259 15.0605 70.7783 16.9072 70.7783 18.8655V28.3032C70.7783 29.9992 69.2008 31.379 67.2718 31.3791L67.1743 31.3781V29.3645C68.5691 28.0731 69.4445 26.2284 69.4445 24.1824V20.2587C69.4569 19.6379 68.8411 19.166 68.245 19.3397C67.6225 19.521 66.9748 19.6129 66.3203 19.6129C63.3359 19.6129 60.7124 17.7084 59.792 14.8737C59.6321 14.3814 59.1032 14.1116 58.6107 14.2716C58.1184 14.4315 57.8488 14.9604 58.0086 15.4529C59.1806 19.0626 62.5209 21.4879 66.3203 21.4879C66.7397 21.4879 67.1571 21.458 67.5696 21.3989V24.1824C67.5696 27.0441 65.2405 29.3722 62.3776 29.3722C59.5142 29.3722 57.1847 27.0441 57.1847 24.1824V20.9357C57.5296 20.7886 57.9128 20.558 58.2609 20.1969C58.6203 19.8241 58.6094 19.2306 58.2365 18.8712C57.8636 18.5119 57.2702 18.5227 56.9109 18.8956C56.6255 19.1917 56.2787 19.2851 56.0974 19.3145C55.6434 19.388 55.3096 19.78 55.3096 20.24V24.1825C55.3096 26.2297 56.1861 28.0755 57.5827 29.367V31.3774C55.6804 31.34 54.1457 29.9759 54.1457 28.3032ZM17.9256 47.9889H19.6953V49.5321C18.827 49.4545 18.1166 48.8197 17.9256 47.9889ZM25.7506 20.3691L31.0144 22.5665C31.1299 22.6147 31.2527 22.6389 31.3755 22.6389C31.4983 22.6389 31.6211 22.6147 31.7366 22.5665L37.0004 20.3691V21.7587C36.527 22.4616 34.665 24.8847 31.4761 24.9172C29.123 24.9387 26.9475 23.7001 25.7505 21.6634V20.3691H25.7506ZM37.0005 13.7645V18.3374L31.3755 20.6855L25.7506 18.3374V13.7645H37.0005ZM30.5264 33.5755C29.9808 33.5305 29.4406 33.4335 28.9114 33.2872C29.0624 32.8792 29.1464 32.4425 29.1464 31.9919V29.4615C29.1464 28.978 28.8905 28.5236 28.4785 28.2756C27.146 27.4735 26.2352 26.1999 25.8979 24.7346C27.4069 26.0429 29.3504 26.7926 31.4086 26.7926C31.4374 26.7926 31.4665 26.7925 31.4954 26.7922C33.876 26.768 35.6559 25.7524 36.858 24.7139C36.5246 26.1879 35.6115 27.4697 34.2728 28.2756C33.8608 28.5235 33.6047 28.978 33.6047 29.4616V31.992C33.6047 32.4195 33.6804 32.8345 33.8169 33.2244C32.7386 33.5486 31.636 33.6672 30.5264 33.5755ZM66.2661 46.1139H64.5709C64.8081 45.6229 64.9431 45.0635 64.9431 44.4699C64.9431 43.8761 64.808 43.3166 64.5706 42.8255H66.266V46.1139H66.2661ZM59.3558 42.8255H61.739C62.4719 42.8255 63.0682 43.5631 63.0682 44.4699C63.0682 45.3741 62.4751 46.1099 61.7449 46.1139H59.3558V42.8255ZM76.1253 49.5402H43.0559V47.9889H78.0742C77.8703 48.8764 77.0739 49.5402 76.1253 49.5402Z" fill="#5A2E91"/>
</g>
<defs>
<clipPath id="clip0">
<rect width="64" height="64" fill="white" transform="translate(16)"/>
</clipPath>
</defs>
</svg>

<svg width="80" height="75" fill="none" xmlns="http://www.w3.org/2000/svg"><path d="M64 66.155l-.035-.03.035-.04-.902-.763-6.306-5.8s-.111.115-.294.285l-.167.181c-1.438 1.33-6.048 5.179-11.458 5.254h-.35c-2.846-.306-5.622-1.822-8.438-4.627-4.675-4.676-9.877-7.2-15.474-7.536h-.466a20.487 20.487 0 00-2.533-.066c-8.429.342-14.69 5.942-16.817 8.1-.456.406-.73.697-.79.747l.03.03a.175.175 0 01-.035.045l.902.753 6.306 5.805.294-.29.167-.181c1.433-1.335 6.048-5.184 11.458-5.254h.344c2.852.306 5.622 1.822 8.439 4.626 4.68 4.657 9.872 7.181 15.47 7.527h.465c.842.075 1.688.096 2.533.066 8.428-.342 14.69-5.937 16.817-8.094.44-.422.719-.708.775-.768" fill="#EFC825"/><g clip-path="url(#clip0)"><path d="M79.063 46.114h-1.765a4.328 4.328 0 00.322-4.421l-.543-1.092a.938.938 0 10-1.68.834l.544 1.093a2.464 2.464 0 01-.112 2.41 2.469 2.469 0 01-2.112 1.176h-5.576v-3.288h3.574a.937.937 0 100-1.875h-.018l-.625-1.531a.937.937 0 10-1.736.709l.336.822H55.515l.335-.822a.938.938 0 00-1.736-.71l-.627 1.536a.937.937 0 00.084 1.87h3.91v3.289h-6.274c-.867 0-1.657-.44-2.113-1.175a2.465 2.465 0 01-.111-2.411l2.891-5.815a2.89 2.89 0 011.61-1.435l4.877-1.77 3.4 2.97a.936.936 0 001.233 0l3.45-3.012 4.996 1.812a2.89 2.89 0 011.61 1.435l.762 1.533a.937.937 0 101.679-.835l-.763-1.533a4.756 4.756 0 00-2.648-2.363l-2.302-.835c1.708-.831 2.875-2.48 2.875-4.377v-9.437c0-2.497-1.072-4.838-3.02-6.593-1.92-1.731-4.466-2.684-7.17-2.684-5.62 0-10.192 4.161-10.192 9.277v9.437c0 1.895 1.166 3.545 2.877 4.376l-2.304.836a4.756 4.756 0 00-2.648 2.363l-2.892 5.815a4.328 4.328 0 00.322 4.421h-4.57V40.32a6.1 6.1 0 00-4.01-5.718l-2.327-.844a1.884 1.884 0 01-1.24-1.766v-2.26a7.437 7.437 0 003.397-6.275v-9.692h1.222v8.276a.937.937 0 101.875 0v-9.214a.938.938 0 00-.937-.937h-19.32a.938.938 0 000 1.875h2.16v9.692a7.437 7.437 0 003.395 6.275v2.26c0 .788-.498 1.497-1.239 1.766l-2.326.844a6.1 6.1 0 00-4.01 5.718v5.794h-2.759a.937.937 0 00-.937.938v.489a3.88 3.88 0 003.695 3.87v2.063a.938.938 0 001.875 0v-6.742h2.766v6.742a.938.938 0 001.875 0v-9.365c0-.903.237-1.79.683-2.567a.937.937 0 10-1.625-.935 7.034 7.034 0 00-.933 3.502v.748H21.57V40.32a4.22 4.22 0 012.775-3.955l2.327-.843a3.727 3.727 0 001.096-.628 10.667 10.667 0 007.146-.058c.339.292.73.528 1.166.686l2.327.843a4.22 4.22 0 012.774 3.955v4.538h-2.766v-.748c0-3.88-3.158-7.037-7.04-7.037-1.084 0-2.125.24-3.092.715a.937.937 0 10.824 1.684 5.169 5.169 0 017.433 4.638v9.365a.937.937 0 101.875 0v-6.742h2.766v6.742a.937.937 0 101.875 0v-2.059h9.782v2.059a.938.938 0 001.875 0v-2.059H70.21v2.059a.937.937 0 101.876 0v-2.059h4.038A3.879 3.879 0 0080 47.541v-.49a.938.938 0 00-.938-.937zM62.377 34.527l-2.92-2.55v-1.363c.89.405 1.879.633 2.92.633s2.03-.228 2.921-.634v1.364l-2.921 2.55zm-8.232-6.224v-9.438c0-4.08 3.73-7.401 8.317-7.401 2.24 0 4.34.782 5.915 2.201 1.548 1.396 2.4 3.242 2.4 5.2v9.438c0 1.696-1.577 3.076-3.506 3.076h-.098v-2.015a7.046 7.046 0 002.27-5.182V20.26a.948.948 0 00-1.199-.92 6.88 6.88 0 01-1.925.274 6.844 6.844 0 01-6.528-4.74.938.938 0 00-1.783.58 8.714 8.714 0 008.311 6.035c.42 0 .837-.03 1.25-.09v2.784c0 2.862-2.33 5.19-5.192 5.19a5.197 5.197 0 01-5.193-5.19v-3.246a3.27 3.27 0 001.076-.74.937.937 0 10-1.35-1.3c-.285.296-.632.39-.814.418a.938.938 0 00-.787.926v3.943c0 2.047.876 3.893 2.273 5.184v2.01c-1.903-.037-3.437-1.401-3.437-3.074zM17.926 47.99h1.77v1.543a2.004 2.004 0 01-1.77-1.543zm7.825-27.62l5.263 2.198a.938.938 0 00.723 0L37 20.369v1.39c-.473.703-2.335 3.126-5.524 3.158a6.567 6.567 0 01-5.726-3.254V20.37zM37 13.765v4.572l-5.625 2.349-5.625-2.349v-4.572H37zm-6.475 19.81a8.763 8.763 0 01-1.615-.288c.151-.408.235-.844.235-1.295v-2.53a1.39 1.39 0 00-.668-1.186 5.58 5.58 0 01-2.58-3.541 8.401 8.401 0 005.597 2.057c2.381-.024 4.16-1.04 5.363-2.078a5.58 5.58 0 01-2.585 3.562 1.39 1.39 0 00-.668 1.186v2.53c0 .427.075.842.212 1.232a8.834 8.834 0 01-3.29.352zm35.74 12.539H64.57c.237-.491.372-1.05.372-1.644 0-.594-.135-1.153-.372-1.645h1.695v3.289zm-6.91-3.288h2.383c.733 0 1.33.737 1.33 1.644 0 .904-.594 1.64-1.324 1.644h-2.39v-3.288zm16.77 6.714h-33.07v-1.55h35.018c-.204.887-1 1.551-1.949 1.551z" fill="#5A2E91"/></g><defs><clipPath id="clip0"><path fill="#fff" transform="translate(16)" d="M0 0h64v64H0z"/></clipPath></defs></svg>
